X:0671
T:John Anderson's auldest Daughter.
M:2/4
L:1/8
Q:1/4=76
I: :: ::
N:Aird uses an A minor key signature
Z:Jack Campin * www.campin.me.uk * 2009
K:A Dorian
AB|{AB}c>A B>G|   TE2 G^F|G2GE|A>BTc>d|e>Bc>A|TE2A^G |A2 A>A| A2:|
AB| {d}c>B`cd |{cd}e2Tdc |BGGB|d2 Tc>d|e>Bc>A|TE2A^G |A2 AE |Hc2
                          (c/B/).c/.d/|e>Bc>A| E2A>^G|A2 A>A| A2:|
<end>
<start>
